src/pages/elements/images/type-color-do-1.svg

<svg xmlns="http://www.w3.org/2000/svg" viewBox="0 0 288 288"><g fill="none" fill-rule="evenodd"><path fill="#FFF" d="M0 0h288v288H0z"/><path d="M76.408 125l-6.12-10.224-2.016-3.72H68.2V125h-1.968v-16.752h2.328l6.12 10.224 2.016 3.72h.072v-13.944h1.968V125h-2.328zm11.256.288c-3.36 0-5.568-2.544-5.568-6.48 0-3.936 2.208-6.48 5.568-6.48 3.312 0 5.352 2.544 5.352 6.048v.912h-8.904v.576c0 2.136 1.368 3.744 3.672 3.744 1.56 0 2.76-.768 3.408-2.136l1.368.984c-.792 1.68-2.568 2.832-4.896 2.832zm0-11.352c-2.088 0-3.552 1.584-3.552 3.744v.168h6.84v-.264c0-2.184-1.32-3.648-3.288-3.648zM103.816 125v-2.016h-.096c-.48 1.176-1.416 2.304-3.48 2.304-2.544 0-4.176-1.728-4.176-4.728v-7.944h1.92v7.608c0 2.208.984 3.336 2.832 3.336 1.512 0 3-.744 3-2.376v-8.568h1.92V125h-1.92zm11.136 0h-2.4c-1.32 0-2.04-.84-2.04-2.04v-8.664h-2.04v-1.68h1.152c.816 0 1.08-.288 1.08-1.128v-2.304h1.728v3.432h2.712v1.68h-2.712v9.024h2.52V125zm5.208 0h-1.92v-12.384h1.92v2.28h.12c.432-1.176 1.56-2.28 3.576-2.28h.744v1.92h-1.128c-2.064 0-3.312.888-3.312 2.064v8.4zm16.872 0h-1.08c-1.416 0-1.992-.864-2.136-2.016h-.12c-.528 1.512-1.848 2.304-3.576 2.304-2.616 0-4.152-1.44-4.152-3.744 0-2.328 1.68-3.624 5.28-3.624h2.448v-1.224c0-1.752-.96-2.712-2.928-2.712-1.488 0-2.472.72-3.144 1.848l-1.152-1.08c.672-1.32 2.16-2.424 4.392-2.424 2.976 0 4.752 1.56 4.752 4.176v6.816h1.416V125zm-6.6-1.344c1.896 0 3.264-.984 3.264-2.256v-2.04h-2.544c-2.184 0-3.168.672-3.168 1.872v.504c0 1.224.96 1.92 2.448 1.92zm13.08 1.344h-1.704c-1.32 0-2.04-.84-2.04-1.992V107.24h1.92v16.08h1.824V125zm13.056.288c-3.48 0-5.52-2.52-5.52-6.48 0-3.96 2.04-6.48 5.52-6.48 2.448 0 3.912 1.2 4.632 2.904l-1.608.816c-.456-1.272-1.512-2.016-3.024-2.016-2.28 0-3.456 1.56-3.456 3.72v2.112c0 2.16 1.176 3.72 3.456 3.72 1.56 0 2.688-.744 3.36-2.16l1.392.936c-.792 1.776-2.4 2.928-4.752 2.928zm12 0c-3.312 0-5.592-2.544-5.592-6.48 0-3.936 2.28-6.48 5.592-6.48s5.592 2.544 5.592 6.48c0 3.936-2.28 6.48-5.592 6.48zm0-1.704c2.064 0 3.528-1.272 3.528-3.888v-1.776c0-2.616-1.464-3.888-3.528-3.888s-3.528 1.272-3.528 3.888v1.776c0 2.616 1.464 3.888 3.528 3.888zM181.072 125h-1.704c-1.32 0-2.04-.84-2.04-1.992V107.24h1.92v16.08h1.824V125zm7.464.288c-3.312 0-5.592-2.544-5.592-6.48 0-3.936 2.28-6.48 5.592-6.48s5.592 2.544 5.592 6.48c0 3.936-2.28 6.48-5.592 6.48zm0-1.704c2.064 0 3.528-1.272 3.528-3.888v-1.776c0-2.616-1.464-3.888-3.528-3.888s-3.528 1.272-3.528 3.888v1.776c0 2.616 1.464 3.888 3.528 3.888zm10.68 1.416h-1.92v-12.384h1.92v2.28h.12c.432-1.176 1.56-2.28 3.576-2.28h.744v1.92h-1.128c-2.064 0-3.312.888-3.312 2.064v8.4zM66.712 155v-10.704h-2.016v-1.68h2.016v-2.496c0-1.704.888-2.88 2.712-2.88h1.872v1.68h-2.664v3.696h2.664v1.68h-2.664V155h-1.92zm11.688.288c-3.312 0-5.592-2.544-5.592-6.48 0-3.936 2.28-6.48 5.592-6.48s5.592 2.544 5.592 6.48c0 3.936-2.28 6.48-5.592 6.48zm0-1.704c2.064 0 3.528-1.272 3.528-3.888v-1.776c0-2.616-1.464-3.888-3.528-3.888s-3.528 1.272-3.528 3.888v1.776c0 2.616 1.464 3.888 3.528 3.888zM89.08 155h-1.92v-12.384h1.92v2.28h.12c.432-1.176 1.56-2.28 3.576-2.28h.744v1.92h-1.128c-2.064 0-3.312.888-3.312 2.064v8.4zm17.688 0h-2.4c-1.32 0-2.04-.84-2.04-2.04v-8.664h-2.04v-1.68h1.152c.816 0 1.08-.288 1.08-1.128v-2.304h1.728v3.432h2.712v1.68h-2.712v9.024h2.52V155zm7.848.288c-3.36 0-5.568-2.544-5.568-6.48 0-3.936 2.208-6.48 5.568-6.48 3.312 0 5.352 2.544 5.352 6.048v.912h-8.904v.576c0 2.136 1.368 3.744 3.672 3.744 1.56 0 2.76-.768 3.408-2.136l1.368.984c-.792 1.68-2.568 2.832-4.896 2.832zm0-11.352c-2.088 0-3.552 1.584-3.552 3.744v.168h6.84v-.264c0-2.184-1.32-3.648-3.288-3.648zM121.312 155l4.584-6.24-4.392-6.144h2.256l3.144 4.608h.072l3.264-4.608h2.136l-4.368 6 4.464 6.384h-2.256L127 150.152h-.072l-3.48 4.848h-2.136zm18.84 0h-2.4c-1.32 0-2.04-.84-2.04-2.04v-8.664h-2.04v-1.68h1.152c.816 0 1.08-.288 1.08-1.128v-2.304h1.728v3.432h2.712v1.68h-2.712v9.024h2.52V155z" fill="#3D3D3D"/></g></svg>

<?xml version="1.0" encoding="UTF-8"?>
<svg width="288px" height="288px" viewBox="0 0 288 288" version="1.1" xmlns="http://www.w3.org/2000/svg" xmlns:xlink="http://www.w3.org/1999/xlink">
    <!-- Generator: Sketch 51.3 (57544) - http://www.bohemiancoding.com/sketch -->
    <title>Type Color - Do 1</title>
    <desc>Created with Sketch.</desc>
    <defs></defs>
    <g id="Page-1" stroke="none" stroke-width="1" fill="none" fill-rule="evenodd">
        <g id="Type-Specs" transform="translate(-352.000000, -341.000000)">
            <g id="Type-Color---Do-1" transform="translate(352.000000, 341.000000)">
                <rect id="Rectangle-16-Copy-148" fill="#FFFFFF" x="0" y="0" width="288" height="288"></rect>
                <path d="M76.408,125 L70.288,114.776 L68.272,111.056 L68.2,111.056 L68.2,125 L66.232,125 L66.232,108.248 L68.56,108.248 L74.68,118.472 L76.696,122.192 L76.768,122.192 L76.768,108.248 L78.736,108.248 L78.736,125 L76.408,125 Z M87.664,125.288 C84.304,125.288 82.096,122.744 82.096,118.808 C82.096,114.872 84.304,112.328 87.664,112.328 C90.976,112.328 93.016,114.872 93.016,118.376 L93.016,119.288 L84.112,119.288 L84.112,119.864 C84.112,122 85.48,123.608 87.784,123.608 C89.344,123.608 90.544,122.84 91.192,121.472 L92.56,122.456 C91.768,124.136 89.992,125.288 87.664,125.288 Z M87.664,113.936 C85.576,113.936 84.112,115.52 84.112,117.68 L84.112,117.848 L90.952,117.848 L90.952,117.584 C90.952,115.4 89.632,113.936 87.664,113.936 Z M103.816,125 L103.816,122.984 L103.72,122.984 C103.24,124.16 102.304,125.288 100.24,125.288 C97.696,125.288 96.064,123.56 96.064,120.56 L96.064,112.616 L97.984,112.616 L97.984,120.224 C97.984,122.432 98.968,123.56 100.816,123.56 C102.328,123.56 103.816,122.816 103.816,121.184 L103.816,112.616 L105.736,112.616 L105.736,125 L103.816,125 Z M114.952,125 L112.552,125 C111.232,125 110.512,124.16 110.512,122.96 L110.512,114.296 L108.472,114.296 L108.472,112.616 L109.624,112.616 C110.44,112.616 110.704,112.328 110.704,111.488 L110.704,109.184 L112.432,109.184 L112.432,112.616 L115.144,112.616 L115.144,114.296 L112.432,114.296 L112.432,123.32 L114.952,123.32 L114.952,125 Z M120.16,125 L118.24,125 L118.24,112.616 L120.16,112.616 L120.16,114.896 L120.28,114.896 C120.712,113.72 121.84,112.616 123.856,112.616 L124.6,112.616 L124.6,114.536 L123.472,114.536 C121.408,114.536 120.16,115.424 120.16,116.6 L120.16,125 Z M137.032,125 L135.952,125 C134.536,125 133.96,124.136 133.816,122.984 L133.696,122.984 C133.168,124.496 131.848,125.288 130.12,125.288 C127.504,125.288 125.968,123.848 125.968,121.544 C125.968,119.216 127.648,117.92 131.248,117.92 L133.696,117.92 L133.696,116.696 C133.696,114.944 132.736,113.984 130.768,113.984 C129.28,113.984 128.296,114.704 127.624,115.832 L126.472,114.752 C127.144,113.432 128.632,112.328 130.864,112.328 C133.84,112.328 135.616,113.888 135.616,116.504 L135.616,123.32 L137.032,123.32 L137.032,125 Z M130.432,123.656 C132.328,123.656 133.696,122.672 133.696,121.4 L133.696,119.36 L131.152,119.36 C128.968,119.36 127.984,120.032 127.984,121.232 L127.984,121.736 C127.984,122.96 128.944,123.656 130.432,123.656 Z M143.512,125 L141.808,125 C140.488,125 139.768,124.16 139.768,123.008 L139.768,107.24 L141.688,107.24 L141.688,123.32 L143.512,123.32 L143.512,125 Z M156.568,125.288 C153.088,125.288 151.048,122.768 151.048,118.808 C151.048,114.848 153.088,112.328 156.568,112.328 C159.016,112.328 160.48,113.528 161.2,115.232 L159.592,116.048 C159.136,114.776 158.08,114.032 156.568,114.032 C154.288,114.032 153.112,115.592 153.112,117.752 L153.112,119.864 C153.112,122.024 154.288,123.584 156.568,123.584 C158.128,123.584 159.256,122.84 159.928,121.424 L161.32,122.36 C160.528,124.136 158.92,125.288 156.568,125.288 Z M168.568,125.288 C165.256,125.288 162.976,122.744 162.976,118.808 C162.976,114.872 165.256,112.328 168.568,112.328 C171.88,112.328 174.16,114.872 174.16,118.808 C174.16,122.744 171.88,125.288 168.568,125.288 Z M168.568,123.584 C170.632,123.584 172.096,122.312 172.096,119.696 L172.096,117.92 C172.096,115.304 170.632,114.032 168.568,114.032 C166.504,114.032 165.04,115.304 165.04,117.92 L165.04,119.696 C165.04,122.312 166.504,123.584 168.568,123.584 Z M181.072,125 L179.368,125 C178.048,125 177.328,124.16 177.328,123.008 L177.328,107.24 L179.248,107.24 L179.248,123.32 L181.072,123.32 L181.072,125 Z M188.536,125.288 C185.224,125.288 182.944,122.744 182.944,118.808 C182.944,114.872 185.224,112.328 188.536,112.328 C191.848,112.328 194.128,114.872 194.128,118.808 C194.128,122.744 191.848,125.288 188.536,125.288 Z M188.536,123.584 C190.6,123.584 192.064,122.312 192.064,119.696 L192.064,117.92 C192.064,115.304 190.6,114.032 188.536,114.032 C186.472,114.032 185.008,115.304 185.008,117.92 L185.008,119.696 C185.008,122.312 186.472,123.584 188.536,123.584 Z M199.216,125 L197.296,125 L197.296,112.616 L199.216,112.616 L199.216,114.896 L199.336,114.896 C199.768,113.72 200.896,112.616 202.912,112.616 L203.656,112.616 L203.656,114.536 L202.528,114.536 C200.464,114.536 199.216,115.424 199.216,116.6 L199.216,125 Z M66.712,155 L66.712,144.296 L64.696,144.296 L64.696,142.616 L66.712,142.616 L66.712,140.12 C66.712,138.416 67.6,137.24 69.424,137.24 L71.296,137.24 L71.296,138.92 L68.632,138.92 L68.632,142.616 L71.296,142.616 L71.296,144.296 L68.632,144.296 L68.632,155 L66.712,155 Z M78.4,155.288 C75.088,155.288 72.808,152.744 72.808,148.808 C72.808,144.872 75.088,142.328 78.4,142.328 C81.712,142.328 83.992,144.872 83.992,148.808 C83.992,152.744 81.712,155.288 78.4,155.288 Z M78.4,153.584 C80.464,153.584 81.928,152.312 81.928,149.696 L81.928,147.92 C81.928,145.304 80.464,144.032 78.4,144.032 C76.336,144.032 74.872,145.304 74.872,147.92 L74.872,149.696 C74.872,152.312 76.336,153.584 78.4,153.584 Z M89.08,155 L87.16,155 L87.16,142.616 L89.08,142.616 L89.08,144.896 L89.2,144.896 C89.632,143.72 90.76,142.616 92.776,142.616 L93.52,142.616 L93.52,144.536 L92.392,144.536 C90.328,144.536 89.08,145.424 89.08,146.6 L89.08,155 Z M106.768,155 L104.368,155 C103.048,155 102.328,154.16 102.328,152.96 L102.328,144.296 L100.288,144.296 L100.288,142.616 L101.44,142.616 C102.256,142.616 102.52,142.328 102.52,141.488 L102.52,139.184 L104.248,139.184 L104.248,142.616 L106.96,142.616 L106.96,144.296 L104.248,144.296 L104.248,153.32 L106.768,153.32 L106.768,155 Z M114.616,155.288 C111.256,155.288 109.048,152.744 109.048,148.808 C109.048,144.872 111.256,142.328 114.616,142.328 C117.928,142.328 119.968,144.872 119.968,148.376 L119.968,149.288 L111.064,149.288 L111.064,149.864 C111.064,152 112.432,153.608 114.736,153.608 C116.296,153.608 117.496,152.84 118.144,151.472 L119.512,152.456 C118.72,154.136 116.944,155.288 114.616,155.288 Z M114.616,143.936 C112.528,143.936 111.064,145.52 111.064,147.68 L111.064,147.848 L117.904,147.848 L117.904,147.584 C117.904,145.4 116.584,143.936 114.616,143.936 Z M121.312,155 L125.896,148.76 L121.504,142.616 L123.76,142.616 L126.904,147.224 L126.976,147.224 L130.24,142.616 L132.376,142.616 L128.008,148.616 L132.472,155 L130.216,155 L127,150.152 L126.928,150.152 L123.448,155 L121.312,155 Z M140.152,155 L137.752,155 C136.432,155 135.712,154.16 135.712,152.96 L135.712,144.296 L133.672,144.296 L133.672,142.616 L134.824,142.616 C135.64,142.616 135.904,142.328 135.904,141.488 L135.904,139.184 L137.632,139.184 L137.632,142.616 L140.344,142.616 L140.344,144.296 L137.632,144.296 L137.632,153.32 L140.152,153.32 L140.152,155 Z" id="Neutral-color-for-te-Copy" fill="#3D3D3D"></path>
            </g>
        </g>
    </g>
</svg>
